X: 1918
T: Arran Boat Song, The
R: waltz
M: 3/4
K: Aminor
|:EG|A3 B A2|e3 ^f g2|d3 B G2|d3 B G2|
A3 B A2|e3 ^f g2|d B3 G2|A4:|
eg||a3 b a2|c'3 b a2|g3 e c2|d3 B G2|
a3 b a2|c'3 b a2|g e3 g2|a4||
a^g||a3 b a2|c'3 b a2|g3 e c2|d3 B G2|
A3 B A2|e3 ^f g2|d B3 G2|A4||

